icons/mobile/24/svg/shield-dot-24.svg

<svg width="24" height="24" viewBox="0 0 24 24" fill="none" xmlns="http://www.w3.org/2000/svg">
<path d="M19 22C17.346 22 16 20.654 16 19C16 17.346 17.346 16 19 16C20.654 16 22 17.346 22 19C22 20.654 20.654 22 19 22Z" fill="black"/>
<path d="M14.5001 19C14.5001 18.741 14.5341 18.491 14.5761 18.244C14.0151 18.723 13.4361 19.167 12.8291 19.527C12.3161 19.831 11.6741 19.826 11.1511 19.514C9.48108 18.521 7.93508 17.026 6.79908 15.305C6.23908 14.455 5.84108 13.402 5.61408 12.173L5.04408 9.07505C4.90008 8.29605 5.30808 7.51705 6.01208 7.22305C6.72908 6.92605 7.44508 6.59305 8.13908 6.23605C9.12808 5.72705 10.0961 5.15905 11.0141 4.54705C11.3101 4.35005 11.6471 4.25105 11.9821 4.25105C12.3171 4.25105 12.6521 4.35005 12.9401 4.54905C13.7061 5.07405 14.5081 5.56805 15.3231 6.01305C16.1881 6.48605 17.0801 6.91405 17.9741 7.28605C18.6861 7.58305 19.0991 8.35805 18.9551 9.13105L18.3881 12.181C18.2061 13.164 17.9071 14.029 17.5091 14.773C17.9781 14.607 18.4751 14.499 19.0001 14.499C19.1841 14.499 19.3581 14.532 19.5361 14.553C19.7811 13.919 19.9731 13.233 20.1091 12.5L20.6761 9.45105C20.9691 7.87205 20.1161 6.28205 18.6471 5.67105C17.8091 5.32205 16.9731 4.92005 16.1631 4.47805C15.3991 4.06105 14.6491 3.59905 13.9311 3.10605C12.7621 2.30305 11.2351 2.29605 10.0431 3.09105C9.17908 3.66705 8.26908 4.20105 7.33808 4.68005C6.68508 5.01705 6.01308 5.32805 5.34008 5.60905C3.88008 6.21705 3.03108 7.80805 3.32308 9.39205L3.89308 12.49C4.16308 13.952 4.64808 15.222 5.33808 16.269C6.61708 18.206 8.36308 19.892 10.2551 21.018C10.7961 21.34 11.4011 21.501 12.0051 21.501C12.6001 21.501 13.1921 21.345 13.7201 21.032C14.0641 20.828 14.3961 20.586 14.7281 20.347C14.5921 19.919 14.4991 19.471 14.4991 18.999L14.5001 19Z" fill="black"/>
</svg>

<!-- This Source Code Form is subject to the terms of the Mozilla Public
   - License, v. 2.0. If a copy of the MPL was not distributed with this
   - file, You can obtain one at http://mozilla.org/MPL/2.0/. -->
<svg xmlns="http://www.w3.org/2000/svg" width="24" height="24" fill="none" viewBox="0 0 24 24">
    <path fill="#000" d="M19 22c-1.654 0-3-1.346-3-3s1.346-3 3-3 3 1.346 3 3-1.346 3-3 3" />
    <path fill="#000" d="M14.5 19c0-.259.034-.509.076-.756-.56.479-1.14.923-1.747 1.283a1.64 1.64 0 0 1-1.678-.013c-1.67-.993-3.216-2.488-4.352-4.209-.56-.85-.958-1.903-1.185-3.132l-.57-3.098c-.144-.779.264-1.558.968-1.852.717-.297 1.433-.63 2.127-.987a30 30 0 0 0 2.875-1.689c.296-.197.633-.296.968-.296s.67.1.958.298a27.8 27.8 0 0 0 5.034 2.737 1.67 1.67 0 0 1 .981 1.845l-.567 3.05c-.182.983-.48 1.848-.879 2.592A4.5 4.5 0 0 1 19 14.499c.184 0 .358.033.536.054q.368-.952.573-2.053l.567-3.049c.293-1.579-.56-3.169-2.029-3.78a26 26 0 0 1-2.484-1.193 26 26 0 0 1-2.232-1.372 3.45 3.45 0 0 0-3.888-.015A28 28 0 0 1 5.34 5.609c-1.46.608-2.309 2.199-2.017 3.783l.57 3.098c.27 1.462.755 2.732 1.445 3.779 1.28 1.937 3.025 3.623 4.917 4.749a3.4 3.4 0 0 0 1.75.483c.595 0 1.187-.156 1.715-.469.344-.204.676-.446 1.008-.685a4.4 4.4 0 0 1-.229-1.348z" />
</svg>
